X: 9
T: Lads Of Laois, The
Z: Edgar Bolton
S: https://thesession.org/tunes/58#setting46338
R: reel
M: 4/4
L: 1/8
K: Edor
|:"Em"EB, ~B,2 EGFE|"D" DA, ~A,2 DEFA|"Em" GE{G}ED EFGA|B2 eB "G" dB"D"AF|
"Em"EB, ~B,2 EGFE|"D" DA, ~A,2 DEFD|"Em" ~E2 BE dEBE|"D" DEFA "Em"BE ~E2:|
|:"Em" eB ~B2 egfe|"D" defg afed|(3Bcd ef ~g3 e|"D" fgaf "Bm" gfed|
"Em" eB ~B2 GBFB|EB{d}BA (3Bcd ef|~g3 e "D"~f3d|"Em"efed BAFD:|

